icons/checkbox.svg

<svg xmlns="http://www.w3.org/2000/svg" width="24" height="24" viewBox="0 0 24 24">
  <path d="M16.9393398,6.93933983 C17.5251263,6.35355339 18.4748737,6.35355339 19.0606602,6.93933983 C19.609835,7.48851461 19.6441584,8.35757702 19.1636304,8.94673776 L19.0606602,9.06066017 L10.5606602,17.5606602 C10.0114854,18.109835 9.14242298,18.1441584 8.55326224,17.6636304 L8.43933983,17.5606602 L4.93933983,14.0606602 C4.35355339,13.4748737 4.35355339,12.5251263 4.93933983,11.9393398 C5.48851461,11.390165 6.35757702,11.3558416 6.94673776,11.8363696 L7.06066017,11.9393398 L9.5,14.379 L16.9393398,6.93933983 Z"/>
</svg>

<svg xmlns="http://www.w3.org/2000/svg" viewBox="0 0 24 24">
  <path d="M16.94 6.94a1.5 1.5 0 0 1 2.22 2l-.1.12-8.5 8.5a1.5 1.5 0 0 1-2 .1l-.12-.1-3.5-3.5a1.5 1.5 0 0 1 2-2.22l.12.1 2.44 2.44 7.44-7.44z"/>
</svg>
